svgs/sync.svg

<svg xmlns="http://www.w3.org/2000/svg" width="192" height="192" fill="none" stroke="#000" stroke-width="12" stroke-linejoin="round" xmlns:v="https://vecta.io/nano"><path d="M64 96l50-74 50 74h-44-56z"/><path d="M64 96l32-47 32 47H99.84 64z"/><path d="M128 96l-50 74-50-74h44 56z"/><path d="M128 96L96 143L64 96H92.16H128Z"/></svg>

<svg width="192" height="192" viewBox="0 0 192 192" fill="none" xmlns="http://www.w3.org/2000/svg">
<path d="M64 96L114 22L164 96H120H64Z" stroke="black" stroke-width="12" stroke-linecap="round" stroke-linejoin="round"/>
<path d="M64 96L96 49L128 96H99.84H64Z" stroke="black" stroke-width="12" stroke-linecap="round" stroke-linejoin="round"/>
<path d="M128 96L78 170L28 96H72H128Z" stroke="black" stroke-width="12" stroke-linecap="round" stroke-linejoin="round"/>
<path d="M128 96L96 143L64 96H92.16H128Z" stroke="black" stroke-width="12" stroke-linecap="round" stroke-linejoin="round"/>
</svg>
